X:0922
T:Laddie ly near me.
M:3/4
L:1/8
Q:1/4=100 "Plaintive"
I: :: ||
Z:Jack Campin * www.campin.me.uk * 2009
K:E Minor
B2 e2 ^d2|e3f g2|B2 e2(^d/e/f)|e4 (e/f/g)|{e}d2 {c}B2 {A}G2 |   A3(cBA)|G2 E2 ^D2|({D}E4) E2||
G4     G2|A4  GA|B2 e2 ^d2    |e4 (e/f/g)| (Ted)`(TcB)`(TAG)|{G}A3 cBA |G2 E2 ^D2|({D}E4) E2|]
<end>
<start>
